src/community/images/discuss-and-give-feedback.svg

<svg fill="none" height="310" viewBox="0 0 465 310" width="465" xmlns="http://www.w3.org/2000/svg" xmlns:xlink="http://www.w3.org/1999/xlink"><mask id="a" fill="#fff"><path clip-rule="evenodd" d="m102 150c-1.105 0-2 .895-2 2v8.3l-6 4.639 6 4.64v14.421h295v-32c0-1.105-.895-2-2-2z" fill="#fff" fill-rule="evenodd"/></mask><mask id="b" fill="#fff"><path clip-rule="evenodd" d="m108 158c-1.105 0-2 .895-2 2v22h-6v77c0 1.105.895 2 2 2h291c1.105 0 2-.895 2-2v-77h-237v-22c0-1.105-.895-2-2-2z" fill="#fff" fill-rule="evenodd"/></mask><mask id="c" fill="#fff"><path clip-rule="evenodd" d="m103 68c-1.105 0-2 .8954-2 2v7.9967l-6 4.5033 6 4.5033v8.9967h295v-26c0-1.1046-.895-2-2-2z" fill="#fff" fill-rule="evenodd"/></mask><path d="m0 0h465v310h-465z" fill="#28a197"/><rect fill="#fff" height="248" rx="4" width="384" x="41" y="29"/><path d="m41 33c0-2.2091 1.7909-4 4-4h376c2.209 0 4 1.7909 4 4v19h-384z" fill="#f3f2f1"/><circle cx="50.5" cy="40.5" fill="#d4351c" r="3.5"/><circle cx="62.5" cy="40.5" fill="#fd0" r="3.5"/><circle cx="74.5" cy="40.5" fill="#00703c" r="3.5"/><path d="m113 92v98.5" stroke="#d9d9d9" stroke-width="2"/><path clip-rule="evenodd" d="m102 150c-1.105 0-2 .895-2 2v8.3l-6 4.639 6 4.64v14.421h295v-32c0-1.105-.895-2-2-2z" fill="#f3f2f1" fill-rule="evenodd"/><path d="m100 160.3 1.223 1.582.777-.601v-.981zm-6 4.639-1.2235-1.582-2.0459 1.582 2.0459 1.583zm6 4.64h2v-.981l-.777-.601zm0 14.421h-2v2h2zm295 0v2h2v-2zm-293-32v-4c-2.2091 0-4 1.791-4 4zm0 8.3v-8.3h-4v8.3zm-3.2235-1.583-6 4.64 2.447 3.165 5.9995-4.64zm-6 7.805 6 4.639 2.4465-3.164-5.9995-4.64zm9.2235 17.478v-14.421h-4v14.421zm293-2h-295v4h295zm-2-30v32h4v-32zm0 0h4c0-2.209-1.791-4-4-4zm-291 0h291v-4h-291z" fill="#d9d9d9" mask="url(#a)"/><path clip-rule="evenodd" d="m108 158c-1.105 0-2 .895-2 2v22h-6v77c0 1.105.895 2 2 2h291c1.105 0 2-.895 2-2v-77h-237v-22c0-1.105-.895-2-2-2z" fill="#fff" fill-rule="evenodd"/><path d="m106 182v2h2v-2zm-6 0v-2h-2v2zm295 0h2v-2h-2zm-237 0h-2v2h2zm-50-22v-4c-2.209 0-4 1.791-4 4zm0 22v-22h-4v22zm-8 2h6v-4h-6zm2 75v-77h-4v77zm0 0h-4c0 2.209 1.7909 4 4 4zm291 0h-291v4h291zm0 0v4c2.209 0 4-1.791 4-4zm0-77v77h4v-77zm-235 2h237v-4h-237zm-2-24v22h4v-22zm0 0h4c0-2.209-1.791-4-4-4zm-48 0h48v-4h-48z" fill="#d9d9d9" mask="url(#b)"/><rect fill="#f3f2f1" height="30" rx="1" stroke="#d9d9d9" stroke-width="2" width="279" x="108" y="190"/><rect fill="#fff" height="68" rx="1" stroke="#d9d9d9" stroke-width="2" width="293" x="102" y="69"/><path d="m113 110h195v12h-195z" fill="#b1b4b6"/><circle cx="70" cy="83" fill="#f47738" r="15"/><path d="m112 199h195v12h-195z" fill="#b1b4b6"/><path clip-rule="evenodd" d="m103 68c-1.105 0-2 .8954-2 2v7.9967l-6 4.5033 6 4.5033v8.9967h295v-26c0-1.1046-.895-2-2-2z" fill="#f3f2f1" fill-rule="evenodd"/><path d="m101 77.9967 1.201 1.5995.799-.6v-.9995zm-6 4.5033-1.2006-1.5996-2.1312 1.5996 2.1312 1.5996zm6 4.5033h2v-.9995l-.799-.6zm0 8.9967h-2v2h2zm295 0v2h2v-2zm-293-26v-4c-2.209 0-4 1.7909-4 4zm0 7.9967v-7.9967h-4v7.9967zm-3.2006-1.5996-6 4.5033 2.4012 3.1992 6.0004-4.5034zm-6 7.7025 6 4.5033 2.4016-3.1991-6.0004-4.5034zm9.2006 11.9004v-8.9967h-4v8.9967zm293-2h-295v4h295zm-2-24v26h4v-26zm0 0h4c0-2.2091-1.791-4-4-4zm-291 0h291v-4h-291z" fill="#d9d9d9" mask="url(#c)"/><circle cx="69" cy="165" fill="#4c2c92" r="15"/><rect fill="#00a357" height="16" rx="2" width="49" x="339" y="225"/><circle cx="365" cy="82" r="5" stroke="#b1b4b6"/><circle cx="363.125" cy="81.375" fill="#b1b4b6" r=".625"/><circle cx="366.875" cy="81.375" fill="#b1b4b6" r=".625"/><path d="m362.5 83.25s.625 1.25 2.5 1.25 2.5-1.25 2.5-1.25" stroke="#b1b4b6" stroke-linecap="round"/><g fill="#b1b4b6"><circle cx="376" cy="82" r="1"/><circle cx="380" cy="82" r="1"/><circle cx="384" cy="82" r="1"/></g><path d="m113 77h40v12h-40z" fill="#0b0c0c"/><path d="m159 77h66v12h-66z" fill="#b1b4b6"/><path d="m112 165h40v12h-40z" fill="#b1b4b6"/><path d="m164 165h44v12h-44z" fill="#d9d9d9"/><g stroke="#d9d9d9"><path d="m385 214-4 4"/><path d="m385 216-2 2"/></g></svg>

<svg width="465" height="310" viewBox="0 0 465 310" fill="none" xmlns="http://www.w3.org/2000/svg">
<rect width="465" height="310" fill="#28A197"/>
<rect x="41" y="29" width="384" height="248" rx="4" fill="white"/>
<path d="M41 33C41 30.7909 42.7909 29 45 29H421C423.209 29 425 30.7909 425 33V52H41V33Z" fill="#F3F2F1"/>
<circle cx="50.5" cy="40.5" r="3.5" fill="#D4351C"/>
<circle cx="62.5" cy="40.5" r="3.5" fill="#FFDD00"/>
<circle cx="74.5" cy="40.5" r="3.5" fill="#00703C"/>
<path d="M113 92V190.5" stroke="#D9D9D9" stroke-width="2"/>
<mask id="path-7-inside-1_38_2" fill="white">
<path fill-rule="evenodd" clip-rule="evenodd" d="M102 150C100.895 150 100 150.895 100 152V160.3L94 164.939L100 169.579V184H395V152C395 150.895 394.105 150 393 150H102Z"/>
</mask>
<path fill-rule="evenodd" clip-rule="evenodd" d="M102 150C100.895 150 100 150.895 100 152V160.3L94 164.939L100 169.579V184H395V152C395 150.895 394.105 150 393 150H102Z" fill="#F3F2F1"/>
<path d="M100 160.3L101.223 161.882L102 161.281V160.3H100ZM94 164.939L92.7765 163.357L90.7306 164.939L92.7765 166.522L94 164.939ZM100 169.579H102V168.598L101.223 167.997L100 169.579ZM100 184H98V186H100V184ZM395 184V186H397V184H395ZM102 152V152V148C99.7909 148 98 149.791 98 152H102ZM102 160.3V152H98V160.3H102ZM98.7765 158.717L92.7765 163.357L95.2235 166.522L101.223 161.882L98.7765 158.717ZM92.7765 166.522L98.7765 171.161L101.223 167.997L95.2235 163.357L92.7765 166.522ZM102 184V169.579H98V184H102ZM395 182H100V186H395V182ZM393 152V184H397V152H393ZM393 152H397C397 149.791 395.209 148 393 148V152ZM102 152H393V148H102V152Z" fill="#D9D9D9" mask="url(#path-7-inside-1_38_2)"/>
<mask id="path-9-inside-2_38_2" fill="white">
<path fill-rule="evenodd" clip-rule="evenodd" d="M108 158C106.895 158 106 158.895 106 160V182H100V259C100 260.105 100.895 261 102 261H393C394.105 261 395 260.105 395 259V182H158V160C158 158.895 157.105 158 156 158H108Z"/>
</mask>
<path fill-rule="evenodd" clip-rule="evenodd" d="M108 158C106.895 158 106 158.895 106 160V182H100V259C100 260.105 100.895 261 102 261H393C394.105 261 395 260.105 395 259V182H158V160C158 158.895 157.105 158 156 158H108Z" fill="white"/>
<path d="M106 182V184H108V182H106ZM100 182V180H98V182H100ZM395 182H397V180H395V182ZM158 182H156V184H158V182ZM108 160V160V156C105.791 156 104 157.791 104 160H108ZM108 182V160H104V182H108ZM100 184H106V180H100V184ZM102 259V182H98V259H102ZM102 259H102H98C98 261.209 99.7909 263 102 263V259ZM393 259H102V263H393V259ZM393 259V263C395.209 263 397 261.209 397 259H393ZM393 182V259H397V182H393ZM158 184H395V180H158V184ZM156 160V182H160V160H156ZM156 160V160H160C160 157.791 158.209 156 156 156V160ZM108 160H156V156H108V160Z" fill="#D9D9D9" mask="url(#path-9-inside-2_38_2)"/>
<rect x="108" y="190" width="279" height="30" rx="1" fill="#F3F2F1" stroke="#D9D9D9" stroke-width="2"/>
<rect x="102" y="69" width="293" height="68" rx="1" fill="white" stroke="#D9D9D9" stroke-width="2"/>
<rect x="113" y="110" width="195" height="12" fill="#B1B4B6"/>
<circle cx="70" cy="83" r="15" fill="#F47738"/>
<rect x="112" y="199" width="195" height="12" fill="#B1B4B6"/>
<mask id="path-16-inside-3_38_2" fill="white">
<path fill-rule="evenodd" clip-rule="evenodd" d="M103 68C101.895 68 101 68.8954 101 70V77.9967L95 82.5L101 87.0033V96H396V70C396 68.8954 395.105 68 394 68H103Z"/>
</mask>
<path fill-rule="evenodd" clip-rule="evenodd" d="M103 68C101.895 68 101 68.8954 101 70V77.9967L95 82.5L101 87.0033V96H396V70C396 68.8954 395.105 68 394 68H103Z" fill="#F3F2F1"/>
<path d="M101 77.9967L102.201 79.5962L103 78.9962V77.9967H101ZM95 82.5L93.7994 80.9004L91.6682 82.5L93.7994 84.0996L95 82.5ZM101 87.0033H103V86.0038L102.201 85.4038L101 87.0033ZM101 96H99V98H101V96ZM396 96V98H398V96H396ZM103 70V70V66C100.791 66 99 67.7909 99 70H103ZM103 77.9967V70H99V77.9967H103ZM99.7994 76.3971L93.7994 80.9004L96.2006 84.0996L102.201 79.5962L99.7994 76.3971ZM93.7994 84.0996L99.7994 88.6029L102.201 85.4038L96.2006 80.9004L93.7994 84.0996ZM103 96V87.0033H99V96H103ZM396 94H101V98H396V94ZM394 70V96H398V70H394ZM394 70H398C398 67.7909 396.209 66 394 66V70ZM103 70H394V66H103V70Z" fill="#D9D9D9" mask="url(#path-16-inside-3_38_2)"/>
<circle cx="69" cy="165" r="15" fill="#4C2C92"/>
<rect x="339" y="225" width="49" height="16" rx="2" fill="#00A357"/>
<circle cx="365" cy="82" r="5" stroke="#B1B4B6"/>
<circle cx="363.125" cy="81.375" r="0.625" fill="#B1B4B6"/>
<circle cx="366.875" cy="81.375" r="0.625" fill="#B1B4B6"/>
<path d="M362.5 83.25C362.5 83.25 363.125 84.5 365 84.5C366.875 84.5 367.5 83.25 367.5 83.25" stroke="#B1B4B6" stroke-linecap="round"/>
<circle cx="376" cy="82" r="1" fill="#B1B4B6"/>
<circle cx="380" cy="82" r="1" fill="#B1B4B6"/>
<circle cx="384" cy="82" r="1" fill="#B1B4B6"/>
<rect x="113" y="77" width="40" height="12" fill="#0B0C0C"/>
<rect x="159" y="77" width="66" height="12" fill="#B1B4B6"/>
<path d="M112 165H152V177H112V165Z" fill="#B1B4B6"/>
<path d="M164 165H208V177H164V165Z" fill="#D9D9D9"/>
<path d="M385 214L381 218" stroke="#D9D9D9"/>
<path d="M385 216L383 218" stroke="#D9D9D9"/>
</svg>
